!!!COM:	de Orto, Marbrianus
!!!CDT:	~1460///-1529//
!!!OPR:	Missa Dominicalis
!!!ONM:	2
!!!OTL:	Gloria
!!!AGN:	Mass; Gloria
!!!SCT:	Ort1001b
!!!SCA:	Ort1001b
!!!voices:	4
!!!voices-OPR:	4
**kern	**kern	**kern	**kern
*staff4	*staff3	*staff2	*staff1
*Ivox	*Ivox	*Ivox	*Ivox
*I"Bassus	*I"Tenor	*I"Altus	*I"Discantus
*I'B	*I'T	*I'A	*I'D
*>[A,B,C]	*>[A,B,C]	*>[A,B,C]	*>[A,B,C]
*>A	*>A	*>A	*>A
*clefF4	*clefGv2	*clefGv2	*clefG2
*k[b-]	*k[b-]	*k[b-]	*k[b-]
*M2/1	*M2/1	*M2/1	*M2/1
*met(C)	*met(C)	*met(C)	*met(C)
!!section: Et in terra pax
!!!OMD: Et in terra pax
=1-	=1-	=1-	=1-
1r	0r	2F/	0r
.	.	2G/	.
1F	.	2A/	.
.	.	[2c\	.
=2	=2	=2	=2
1G	0r	2c\]	0r
.	.	2B-\	.
1A	.	2c\	.
.	.	4B-\	.
.	.	4A/	.
=3	=3	=3	=3
1.B-	0r	2G/	2r
.	.	2.d\	2f/
.	.	.	2g/
.	.	4e\	.
2A\	.	2f\	2a/
=4	=4	=4	=4
1G	1r	2g\	1b-
.	.	2.d\	.
1D	1F	.	1a
.	.	4e\	.
.	.	2f\	.
=5	=5	=5	=5
2E\	2G/	2B-\	2g/
2F\	2A/	2A/	2.cc\
1G	1B-	[1d	.
.	.	.	4b-\
.	.	.	[2g/
=6	=6	=6	=6
1D	1A	1d]	2g/]
.	.	.	2f#i/
2r	1G	2B-\	2.g/
2G\	.	[2d\	.
.	.	.	4fni/
=7	=7	=7	=7
2.B-\	1G	2d\]	1d
.	.	2G/	.
4A\	.	.	.
2F\	1c	2A/	1r
[2A\	.	2F/	.
=8	=8	=8	=8
4A\]	1B-	1G	1g
4G\	.	.	.
1G	.	.	.
.	1A	1r	1cc
2F#i\	.	.	.
=9	=9	=9	=9
1G	1B-	2d\	2b-\
.	.	2.g\	2.dd\
1A	1c	.	.
.	.	4e\	4cc\
.	.	2f\	[2cc\
=10	=10	=10	=10
1G	1d	2.g\	2cc\]
.	.	.	2bni\
.	.	4f\	.
2C/	1c	2g\	2.cc\
[2F\	.	2a\	.
.	.	.	4b-i\
=11	=11	=11	=11
2F\]	2r	2f\	2a/
2G\	2B-\	2d\	2g/
2F\	2A/	2f\	2a/
2G\	2G/	2B-\	2b-\
=12	=12	=12	=12
2D\	2A/	2d\	2a/
2d\	2B-\	2G/	2g/
2c\	2A/	2A/	2cc\
[2B-\	2G/	4B-\	[2dd\
.	.	4c\	.
=13	=13	=13	=13
2B-\]	2G/	4d\	4dd\]
.	.	4e\	4cc\
2c\	2F/	1f	2a/
2F\	2A/	.	2cc\
2G\	2B-\	4d\	2b-\
.	.	4e\	.
=14	=14	=14	=14
2F\	2c\	4f\	4a/
.	.	4g\	4g/
2D\	2.d\	2a\	4f/
.	.	.	4e/
1E	.	2r	2d/
.	4c\	.	.
.	2B-\	[2d\	[2g/
=15	=15	=15	=15
1D	1A	1.d]	2g/]
.	.	.	2f#i/
1r	1G	.	1g
.	.	[2B-\	.
=16	=16	=16	=16
1G	0r	2B-\]	0r
.	.	4A/	.
.	.	4G/	.
1A	.	2F/	.
.	.	2c\	.
=17	=17	=17	=17
2G\	0r	2d\	0r
2F\	.	1f	.
1G	.	.	.
.	.	2e\	.
=18	=18	=18	=18
1F	0r	2.a\	2r
.	.	.	2f/
.	.	4g\	.
1r	.	2e\	2g/
.	.	[2d\	2a/
=19	=19	=19	=19
1G	0r	2d\]	1b-
.	.	1g	.
1d	.	.	1a
.	.	2f#i\	.
=20	=20	=20	=20
2.e-i\	2r	1g	1g
.	1G	.	.
4d\	.	.	.
2B-\	.	1r	1r
2c\	2A/	.	.
=21	=21	=21	=21
2G\	2B-\	0r	0r
2.A\	2.c\	.	.
4G\	4B-\	.	.
4F\	4A/	.	.
4E\	4G/	.	.
=22	=22	=22	=22
2F\	2A/	0r	1r
1A	2c\	.	.
.	1B-	.	2.d/
2G\	.	.	.
.	.	.	4e/
=23	=23	=23	=23
1A	1A	2c\	2f/
.	.	2c\	2e/
2D\	2r	2.d\	2f/
2G\	2B-\	.	2g/
.	.	4e\	.
=24	=24	=24	=24
2F\	2A/	2f\	2a/
2.G\	2G/	2B-\	2.b-\
.	2B-\	2d\	.
4F\	.	.	4a/
2E\	2c\	2G/	2g/
=25	=25	=25	=25
1D	1d	2A/	1f
.	.	2B-\	.
2.C/	2.e-i\	1c	2r
.	.	.	[2g/
4D\	4d\	.	.
=26	=26	=26	=26
2E\	2B-\	2r	2g/]
2C/	2c\	2e-\	2g/
2G\	2B-\	2d\	2r
2C/	2c\	2e-i\	[2g/
=27	=27	=27	=27
2.G\	2d\	2.B-\	2g/]
.	2e\	.	2g/
8F\L	.	4c\	.
8E\J	.	.	.
2D\	2f\	2d\	2r
2G\	2d\	2B-\	[2g/
=28	=28	=28	=28
1C	1e	1c	2g/]
.	.	.	2g/
2D\	2.d\	1A	2.f/
[2F\	.	.	.
.	4e\	.	4g/
=29	=29	=29	=29
2F\]	2.f\	2r	4a/
.	.	.	4b-\
2F\	.	1a	2.cc\
.	4e\	.	.
2A\	2c\	.	.
.	.	.	4b-\
2B-\	2d\	2d\	2g/
=30	=30	=30	=30
1G	4B-\	1g	2.dd\
.	4c\	.	.
.	4d\	.	.
.	4e\	.	4cc\
1F	2.f\	2r	2a/
.	.	2a\	2cc\
.	4e\	.	.
=31	=31	=31	=31
2G\	2d\	2g\	2b-\
2A\	2c\	2.f\	2.a/
2D\	2d\	.	.
.	.	8e\L	4g/
.	.	8d\J	.
2E\	2G/	2c\	[2g/
=32	=32	=32	=32
1D	1A	1d	2g/]
.	.	.	2f#i/
1r	1G	2.B-\	1g
.	.	4c\	.
=33	=33	=33	=33
1G	0r	2d\	0r
.	.	2.g\	.
1c	.	.	.
.	.	4f\	.
.	.	2e\	.
=34	=34	=34	=34
2B-\	0r	2d\	0r
2A\	.	2.f\	.
2B-\	.	.	.
.	.	4e\	.
[2c\	.	4d\	.
.	.	4c\	.
=35	=35	=35	=35
2c\]	0r	1d	0r
2Bni\	.	.	.
1c	.	2c\	.
.	.	[2g\	.
=36	=36	=36	=36
2B-\	0r	2g\]	0r
2A\	.	2f\	.
1G	.	4B-\	.
.	.	4c\	.
.	.	4d\	.
.	.	4e\	.
=37	=37	=37	=37
1A	0r	4f\	0r
.	.	4g\	.
.	.	2.a\	.
1B-	.	.	.
.	.	4g\	.
.	.	[2g\	.
=38	=38	=38	=38
1A	0r	2g\]	0r
.	.	2f#i\	.
1G	.	1g	.
=39	=39	=39	=39
2r	2r	2r	2r
2E-\	2G/	2G/	2g/
2E-i\	2B-\	2G/	2g/
2E-i\	2G/	2c\	2g/
=40	=40	=40	=40
1D	2.A/	1d	2.f/
.	4B-\	.	4g/
1r	2c\	2e\	1a
.	[2d\	2f\	.
=41	=41	=41	=41
1G	2d\]	1g	1b-
.	2G/	.	.
2D\	2d\	2f\	2a/
[2C/	[2e\	4g\	[2cc\
.	.	4f\	.
=42	=42	=42	=42
4C/]	4e\]	4e\	4cc\]
4D\	4f\	4d\	4b-\
2E\	1g	2c\	2g/
1D	.	1d	1a
.	2f#i\	.	.
=43	=43	=43	=43
1G	[0g	1B-	1g
1C	.	1e-i	1cc
=44	=44	=44	=44
2.G\	0g_	2d\	2.b-\
.	.	1g	.
4A\	.	.	4cc\
2B-\	.	.	2dd\
2c\	.	2e\	[2cc\
=45	=45	=45	=45
1G	0g]	1d	2cc\]
.	.	.	2bni\
1C	.	2c\	1cc
.	.	[2e\	.
=46	=46	=46	=46
1E-	1G	4e\]	1b-
.	.	4f\	.
.	.	1g	.
1F	2c\	.	1a
.	2A/	2f\	.
=47	=47	=47	=47
1G	2B-\	1d	1g
.	4A/	.	.
.	4G/	.	.
1D	1F	2r	1a
.	.	2f\	.
=48	=48	=48	=48
2r	2G/	2.d\	1b-
2G\	2B-\	.	.
.	.	4e\	.
1F	2c\	2f\	1a
.	2d\	2F/	.
=49	=49	=49	=49
2C/	2e-i\	1G	1g
2E\	2c\	.	.
1D	2d\	2A/	1f
.	2A/	[2d\	.
=50	=50	=50	=50
2G\	2B-\	2d\]	1g
2C/	1c	2e\	.
2F\	.	2c\	[1a
2D\	2d\	[2f\	.
=51	=51	=51	=51
1F	2c\	2f\]	1a]
.	2d\	2f\	.
2r	2G/	2g\	2.b-\
2G\	[2d\	2G/	.
.	.	.	8a/L
.	.	.	8g/J
=52	=52	=52	=52
2D\	2d\]	2B-\	2f/
2E\	2G/	2c\	1g
1D	1A	1d	.
.	.	.	2f#i/
=53	=53	=53	=53
2E-i\	1G	2B-\	2g/
4D\	.	2G/	4f/
4C/	.	.	4e/
2BB-/	1G	[1g	2d/
[2C/	.	.	4c/
.	.	.	4d/
=54	=54	=54	=54
4C/]	1c	2g\]	4e/
4D\	.	.	4f/
4E\	.	2c\	1g
4F\	.	.	.
2G\	2B-\	2e\	.
2F\	2A/	2f\	2a/
=55	=55	=55	=55
1G	1B-	2r	2d/
.	.	2d\	2dd\
1r	1c	2e\	2cc\
.	.	[2g\	[2ee\
=56	=56	=56	=56
0r	1B-	4g\]	4ee\]
.	.	4f\	4dd\
.	.	2d\	1dd
.	1A	1e	.
.	.	.	2cc#i\
=57	=57	=57	=57
1B-	1G	2r	2.dd\
.	.	2d\	.
.	.	.	4b-\
2A\	2r	2e\	2cc\
2F\	2A/	2f\	2a/
=58	=58	=58	=58
1G	1B-	1d	2g/
.	.	.	2d/
2C/	1A	1r	2e/
2D\	.	.	2f/
=59	=59	=59	=59
4E\	1G	1r	2g/
4F\	.	.	.
2G\	.	.	2d/
1B-	1G	2.d\	2r
.	.	.	2g/
.	.	4e\	.
=60	=60	=60	=60
4c\	2.F/	4f\	2.a/
4B-\	.	4g\	.
4A\	.	1a	.
4G\	4G/	.	4b-\
2F\	2A/	.	4cc\
.	.	.	4a/
2G\	2B-\	2d\	2g/
=61	=61	=61	=61
2D\	1A	1f	2r
2F\	.	.	2cc\
2G\	2G/	2d\	2b-\
[2D\	[2d\	[2f\	2a/
=62	=62	=62	=62
2D\]	4d\]	2f\]	2.dd\
.	4e\	.	.
2D\	2.f\	2d\	.
.	.	.	4cc\
2F\	.	2c\	1a
.	4e\	.	.
2A\	2c\	2f\	.
=63	=63	=63	=63
2G\	2.d\	2g\	2b-\
2D\	.	2f\	2a/
.	4c\	.	.
2G\	2d\	[1g	2b-\
[2C/	[2e\	.	2g/
=64	=64	=64	=64
1.C]	4e\]	2g\]	2.cc\
.	4d\	.	.
.	2.c\	2.e\	.
.	.	.	4b-\
.	.	.	4a/
.	4B-\	4d\	4g/
2E\	2G/	2c\	[2g/
=65	=65	=65	=65
1D	1A	0dl	2g/]
.	.	.	2f#i/
1Gl	1Gl	.	1gl
!!LO:LB:i:g=z
=66||	=66||	=66||	=66||
*>B	*>B	*>B	*>B
*clefF4	*clefGv2	*clefGv2	*clefG2
*k[b-]	*k[b-]	*k[b-]	*k[b-]
*M2/1	*M2/1	*M2/1	*M2/1
*met(C|)	*met(C|)	*met(C|)	*met(C|)
!!section: Qui tollis
!!!OMD: Qui tollis
0r	0r	1.d	[0a
.	.	[2c\	.
=67	=67	=67	=67
0r	0r	2c\]	0a]
.	.	1d	.
.	.	4c\	.
.	.	4B-\	.
=68	=68	=68	=68
1D	0r	1A	0f
1D	.	1d	.
=69	=69	=69	=69
1E-	0r	2B-\	0g
.	.	1c	.
2C/	.	.	.
[2E-i\	.	4B-\	.
.	.	4A/	.
=70	=70	=70	=70
4E-\]	0r	2G/	0g
4F\	.	.	.
2G\	.	2.B-\	.
2E-i\	.	.	.
.	.	4c\	.
[2B-\	.	[2d\	.
=71	=71	=71	=71
4B-\]	0r	2d\]	1r
4c\	.	.	.
1d	.	2f\	.
.	.	1e	1g
2c\	.	.	.
=72	=72	=72	=72
0d	0r	1d	1f
.	.	1f	1a
=73	=73	=73	=73
1G	0r	2e\	1b-
.	.	1d	.
1r	.	.	2a/
.	.	[2g\	[2b-\
=74	=74	=74	=74
1r	0r	4g\]	4b-\]
.	.	4f\	4a/
.	.	4e\	4g/
.	.	4d\	4f/
1C	.	1e	1g
=75	=75	=75	=75
1D	0r	2r	1f
.	.	2.f\	.
1D	.	.	1r
.	.	4e\	.
.	.	4d\	.
.	.	4c\	.
=76	=76	=76	=76
2.E-i\	0r	2.B-\	1g
4F\	.	4c\	.
4G\	.	2d\	1g
4A\	.	.	.
[2B-\	.	2G/	.
=77	=77	=77	=77
2B-\]	0r	1d	1f
4A\	.	.	.
4G\	.	.	.
1F#i	.	1r	1a
=78	=78	=78	=78
1G	0r	1d	1b-
1r	.	2c\	1a
.	.	[2d\	.
=79	=79	=79	=79
0r	0r	2d\]	1dd
.	.	2B-\	.
.	.	2A/	2cc\
.	.	2G/	[2dd\
=80	=80	=80	=80
1r	0r	2r	2dd\]
.	.	1g	2b-\
1d	.	.	1a
.	.	2f#i\	.
=81	=81	=81	=81
2G\	0G	1g	0g
1B-	.	.	.
.	.	1r	.
4A\	.	.	.
4G\	.	.	.
=82	=82	=82	=82
2.F\	1A	0r	0r
4G\	.	.	.
1A	1F	.	.
=83	=83	=83	=83
2G\	1G	0r	0r
2.B-\	.	.	.
.	1G	.	.
4c\	.	.	.
2d\	.	.	.
=84	=84	=84	=84
2e-i\	1G	0r	0r
2.d\	.	.	.
.	1F	.	.
4c\	.	.	.
2A\	.	.	.
=85	=85	=85	=85
2c\	1A	0r	0r
4B-\	.	.	.
4A\	.	.	.
2G\	1B-	.	.
[2d\	.	.	.
=86	=86	=86	=86
2d\]	1A	0r	0r
2c\	.	.	.
4e-i\	1G	.	.
4d\	.	.	.
4c\	.	.	.
4B-\	.	.	.
=87	=87	=87	=87
1A	1F	0r	0r
1r	1r	.	.
=88	=88	=88	=88
[0D	[0A	[0d	[0f
=89	=89	=89	=89
1D]	0A]	1d]	1f]
1D	.	1d	1f
=90	=90	=90	=90
0D	0F	0d	0a
=91	=91	=91	=91
[0E-	0G	0B-	1r
.	.	.	[1b-
=92	=92	=92	=92
1E-]	1G	1.e-i	1b-]
1E-i	[1G	.	1b-
.	.	4d\	.
.	.	4c\	.
=93	=93	=93	=93
1E-i	1G]	0B-	1b-
1E-	1G	.	1b-
=94	=94	=94	=94
0C	1G	0e-i	0cc
.	1G	.	.
=95	=95	=95	=95
[0D	0F	1d	0a
.	.	[1f	.
=96	=96	=96	=96
1D]	1A	1f]	1.dd
1G	1B-	1d	.
.	.	.	4cc\
.	.	.	4b-\
=97	=97	=97	=97
1F	1c	1.f	0a
1D	[1d	.	.
.	.	2g\	.
=98	=98	=98	=98
1D	2d\]	0a	1.f
.	4c\	.	.
.	4B-\	.	.
[1F	1A	.	.
.	.	.	2g/
=99	=99	=99	=99
2F\]	1.c	1r	2a/
2G\	.	.	2b-\
1A	.	1e	1cc
.	2A/	.	.
=100	=100	=100	=100
1r	0d	1g	1b-
1D	.	1f	[1a
=101	=101	=101	=101
1G	1B-	1d	2a/]
.	.	.	2g/
1C	1c	1e	[1g
=102	=102	=102	=102
0D	0A	0d	1g]
.	.	.	1f#i
=103	=103	=103	=103
1r	0G	1B-	0g
1G	.	1d	.
=104	=104	=104	=104
1c	0r	1e-i	1r
1B-	.	1d	1g
=105	=105	=105	=105
1A	1r	1c	1cc
2r	1G	1d	1b-
2G\	.	.	.
=106	=106	=106	=106
1F	1c	2r	1a
.	.	1f	.
1G	1B-	.	1b-
.	.	2e\	.
=107	=107	=107	=107
1F	1A	2a\	1cc
.	.	1f	.
1G	1B-	.	1b-
.	.	2e\	.
=108	=108	=108	=108
1F	1c	1f	1a
1G	1B-	1d	1g
=109	=109	=109	=109
1D	1A	2r	1a
.	.	1d	.
2r	1G	.	1b-
2G\	.	2B-\	.
=110	=110	=110	=110
1F	1A	2c\	1a
.	.	2d\	.
2E-\	1B-	2e-i\	1g
2G\	.	[2d\	.
=111	=111	=111	=111
1D	1A	1d]	1f#
[1E-i	1G	2.B-\	2.g/
.	.	4c\	4a/
=112	=112	=112	=112
2E-i\]	2G/	4d\	1b-
.	.	4e-i\	.
2G\	2G/	2.d\	.
1D	1F	.	1a
.	.	4eni\	.
.	.	2f\	.
=113	=113	=113	=113
1d	1G	1B-	1g
1c	1A	2f\	1cc
.	.	[2a\	.
=114	=114	=114	=114
1G	1B-	2a\]	1dd
.	.	1g	.
1c	1A	.	[1cc
.	.	2f\	.
=115	=115	=115	=115
0d	0G	0g	1cc]
.	.	.	1bni
=116	=116	=116	=116
1c	0r	0e	1cc
2A\	.	.	1r
2c\	.	.	.
=117	=117	=117	=117
2B-\	0r	1d	0r
1G	.	.	.
.	.	1g	.
4F\	.	.	.
4E\	.	.	.
=118	=118	=118	=118
2D\	0r	1f	0r
1d	.	.	.
.	.	1e	.
2c#i\	.	.	.
=119	=119	=119	=119
1d	0r	1f	1a
2G\	.	1g	2b-\
[2B-\	.	.	[2dd\
=120	=120	=120	=120
4B-\]	0r	1f	4dd\]
4c\	.	.	4cc\
2d\	.	.	1a
1A	.	1e	.
.	.	.	2cc\
=121	=121	=121	=121
1B-	0r	1d	2dd\
.	.	.	2.ff\
1A	.	1e	.
.	.	.	4ee\
.	.	.	2cc\
=122	=122	=122	=122
0r	0r	2f\	2dd\
.	.	2.g\	2.ee\
.	.	4f\	4dd\
.	.	4e\	4cc\
.	.	4d\	4b-\
=123	=123	=123	=123
1r	0r	2c\	2a/
.	.	2d\	1dd
1A	.	1e	.
.	.	.	2cc#i\
=124	=124	=124	=124
1.B-	1r	0d	1dd
.	1G	.	1r
4A\	.	.	.
4G\	.	.	.
=125	=125	=125	=125
2A\	2F/	0r	0r
1G	2G/	.	.
.	1A	.	.
2F\	.	.	.
=126	=126	=126	=126
2G\	1B-	0r	0r
1d	.	.	.
.	1A	.	.
2c\	.	.	.
=127	=127	=127	=127
2e-i\	1G	1r	0r
2.d\	.	.	.
.	1F	2r	.
4c\	.	.	.
2A\	.	2c\	.
=128	=128	=128	=128
2B-\	0r	2d\	0r
4A\	.	2.f\	.
4G\	.	.	.
2F\	.	.	.
.	.	4e\	.
2A\	.	2c\	.
=129	=129	=129	=129
2G\	0r	2e-i\	0r
2.B-\	.	2.d\	.
4G\	.	4c\	.
[2G\	.	2B-\	.
=130	=130	=130	=130
2G\]	0r	1A	1cc
2F#i\	.	.	.
1G	.	1G	2b-\
.	.	.	[2dd\
=131	=131	=131	=131
1A	0r	1r	2dd\]
.	.	.	2cc\
1G	.	1g	2ee-i\
.	.	.	[2dd\
=132	=132	=132	=132
1D	0r	1f	4dd\]
.	.	.	4cc\
.	.	.	2a/
1r	.	2.g\	2g/
.	.	.	[2b-\
.	.	4f\	.
=133	=133	=133	=133
0r	0r	2.d\	2b-\]
.	.	.	4a/
.	.	4c\	4g/
.	.	4A/	2f/
.	.	4B-\	.
.	.	4c\	2a/
.	.	4d\	.
=134	=134	=134	=134
2C/	0r	2e\	2g/
2G\	.	[1.d	2b-\
2F\	.	.	2a/
[2G\	.	.	[2b-\
=135	=135	=135	=135
4G\]	1G	2d\]	4b-\]
4F\	.	.	4g/
2E\	.	2c\	1g
1D	1A	1d	.
.	.	.	2f#i/
=136	=136	=136	=136
0r	0G	1B-	1g
.	.	[1d	1r
=137	=137	=137	=137
1r	0F	2d\]	1.a
.	.	2c\	.
[1D	.	1f	.
.	.	.	2g/
=138	=138	=138	=138
1D]	0A	0r	1f
1C	.	.	1e
=139	=139	=139	=139
0BB-	0B-	1.f	2r
.	.	.	2.d/
.	.	.	4e/
.	.	[2d\	4f/
.	.	.	4g/
=140	=140	=140	=140
0F	0A	4d\]	2a/
.	.	4e\	.
.	.	2.f\	2f/
.	.	.	1cc
.	.	4e\	.
.	.	2c\	.
=141	=141	=141	=141
0r	1G	2d\	2b-\
.	.	2B-\	1b-
.	1F	1c	.
.	.	.	2a/
=142	=142	=142	=142
1.G	1r	0B-	1.b-
.	1G	.	.
4F\	.	.	4a/
4E\	.	.	4g/
=143	=143	=143	=143
2D\	0A	1r	2f/
2C/	.	.	2e/
1D	.	[1d	[1f
=144	=144	=144	=144
2r	[0B-	1d]	2f/]
2D\	.	.	4e/
.	.	.	4d/
2E-i\	.	2B-\	2g/
2D\	.	[2d\	2f/
=145	=145	=145	=145
1E-i	0B-]	2d\]	1g
.	.	2G/	.
1G	.	2.d\	1b-
.	.	4e\	.
=146	=146	=146	=146
1F	1c	0f	1a
[1B-	[1d	.	1r
=147	=147	=147	=147
2B-\]	1d]	1g	0r
4A\	.	.	.
4G\	.	.	.
1c	1e	1r	.
=148	=148	=148	=148
0d	0f	0r	0a
=149	=149	=149	=149
0G	0g	0r	1.dd
.	.	.	2cc\
=150	=150	=150	=150
1r	1G	0r	2b-\
.	.	.	4a/
.	.	.	4g/
2D\	1A	.	2f/
2C/	.	.	2e/
=151	=151	=151	=151
1G	1B-	1g	1d
1C	1c	1e	1g
=152	=152	=152	=152
1D	1A	1d	1f
1E	1G	1c	[1g
=153	=153	=153	=153
0D	0A	[0dl	2g/]
.	.	.	2f#i/
.	.	.	2f#i/
.	.	.	2e/
=154	=154	=154	=154
0Gl	0Gl	0d]	0gl
!!LO:LB:i:g=z
=155||	=155||	=155||	=155||
*>C	*>C	*>C	*>C
*clefF4	*clefGv2	*clefGv2	*clefG2
*k[b-]	*k[b-]	*k[b-]	*k[b-]
*M3/1	*M3/1	*M3/1	*M3/1
*met(O|)	*met(O|)	*met(O|)	*met(O|)
!!section: Cum sancto spiritu
!!!OMD: Cum sancto spiritu
0D	0A	0d	0f
1D	1F	2.A/	1f
.	.	4B-\	.
=156	=156	=156	=156
1C	0.G	1c	1e
2BB-/	.	2d\	2d/
2C/	.	2e\	2c/
1E-i	.	1c	1g
=157	=157	=157	=157
1D	0A	1d	2f/
.	.	.	4e/
.	.	.	4d/
2C/	.	1r	2e/
2D\	.	.	1d
1A	1r	1r	.
.	.	.	2c/
=158	=158	=158	=158
2D\	1.A	2A/	2d/
2C/	.	1c	2e/
2F\	.	.	2c/
2D\	2F/	2B-\	1f
1C	1G	1c	.
.	.	.	2e/
=159	=159	=159	=159
1c	1F	2r	1f
.	.	2c\	.
2B-\	1r	0f	1r
2A\	.	.	.
1d	1r	.	1a
=160	=160	=160	=160
1G	1r	1g	1b-
1A	1r	0e	1.cc
1r	1A	.	.
.	.	.	4b-\
.	.	.	4cc\
=161	=161	=161	=161
0G	0B-	1d	1.dd
.	.	2.d\	.
.	.	.	4cc\
.	.	4e\	4b-\
2F\	[1c	2f\	2a/
2E\	.	2g\	2g/
=162	=162	=162	=162
2F\	1c]	1c	2f/
2C/	.	.	2g/
2.F\	1c	1r	2a/
.	.	.	4g/
4G\	.	.	4f/
1A	1c	2r	1e
.	.	2A/	.
=163	=163	=163	=163
1r	0.d	2B-\	2d/
.	.	2G/	1g
1D	.	1A	.
.	.	.	2f/
2G\	.	2G/	2g/
2F\	.	[2d\	2a/
=164	=164	=164	=164
1G	1d	2d\]	1b-
.	.	2g\	.
2A\	2c\	2e\	2a/
2F\	2A/	2f\	1a
1G	1B-	1d	.
.	.	.	2g/
=165	=165	=165	=165
1D	0.A	2r	1a
.	.	2f\	.
2C/	.	2e\	2r
2D\	.	1f	2.a/
1F	.	.	.
.	.	.	4b-\
.	.	4e\	[2cc\
.	.	4d\	.
=166	=166	=166	=166
1E	2r	1c	4cc\]
.	.	.	4b-\
.	2G/	.	4a/
.	.	.	4g/
1D	2.A/	1d	1f
.	4B-\	.	.
2C/	2.c\	2e\	2g/
[2F\	.	4f\	[2a/
.	4B-\	4e\	.
=167	=167	=167	=167
2F\]	2A/	4d\	2a/]
.	.	4c\	.
2G\	2G/	2B-\	2b-\
2D\	2F/	1d	2a/
1d	1G	.	1b-
.	.	1g	.
2G\	2B-\	.	2dd\
=168	=168	=168	=168
2A\	2A/	2f\	2cc\
2G\	1B-	2g\	1dd
1B-	.	1f	.
.	2.d\	.	2.ff\
1B-	.	2.f\	.
.	4e\	.	4ee\
.	[2f\	.	2dd\
.	.	4g\	.
=169	=169	=169	=169
2A\	2f\]	2a\	2cc\
1B-	2f\	0d	2.dd\
.	2g\	.	.
.	.	.	4cc\
2G\	1g	.	2b-\
1D	.	.	1a
.	2f#i\	2d\	.
=170	=170	=170	=170
1.G	2g\	1d	1g
.	2G/	.	.
.	2B-\	2g\	2d/
2D\	2A/	2a\	2f/
2G\	2B-\	2d\	2g/
[2F\	2c\	[2f\	[2a/
=171	=171	=171	=171
2F\]	2d\	2f\]	4a/]
.	.	.	4b-\
2C/	2e\	2g\	4cc\
.	.	.	4b-\
2D\	2d\	2f\	4a/
.	.	.	4g/
2E\	2G/	2c\	1g
1D	1A	[1dl	.
.	.	.	2f#i/
=172	=172	=172	=172
0.Gl	0.Gl	0.d]	0.gl
==	==	==	==
*-	*-	*-	*-
!!!RDF**kern: l=long note in original notation
!!!RDF**kern: i=editorial accidental
!!!ENC:	Jesse Rodin 8/11/2013
!!!END:	2013/08/11/
!!!EED:	Jesse Rodin
!!!EEV:	2016/02/08/
!!!ONB:	Translated from MusicXML and edited on 2016/02/08/ by Craig Sapp
!!muse2ps: T^@{OPR}^u^@{ONM}{. }@{OTL}^C^@{COM}^i2I150v85,85,85,150Q16c75
